!!! OTL: Gan^,Shang-,Ling/ (Animal Husbandry)
!!! YEC: Copyright 2001, Chia-wei Lee
!!For Voice Only
!! [Freely]
**kern	**silbe
*clefG2	*LXinhua
*E-:	*ping-ying
*M2/4	*
=11	=11
4b-	Zou^
(8ee-	To/
16ff	|
16ee-)	|
=12	=12
8.cc	To/
16b-	De
8g	Na\
8f	Ge
=13	=
4f	Luo/
q8dd	Zi
4ee-	|
=14	=14
[2ff	Io-
=15	=15
2ff]	|
=16	=16
q8dd	San-
4cc	|
4b-	Zhan^
=17	=17
8.ff	Zhan^
16ff	De
8ee-	na\
8cc	Ge\
=18	=18
q8a-	Deng-
[2b-	|
=19	=19
4b-]	|
8ff	Ai-
8ff	Ia-
=20	=20
4ff	Dai\
(8ff	Shang\
8bb-)	|
=21	=21
4ff	De
8ee-	Na\
8ff	Ge\
=22	=22
q8dd	Ling/
4ff	|
8cc	Zi
8b-	|
=23	=23
q8b-	Io-
4f	|
q8dd	O-
4ee-	|
=24	=24
(8.ff	Wa-
16bb-)	|
4b-	Wa-
=25	=25
4ee-	De
8dd	Na\
8cc	Ge\
=26	=26
q8ee-	Sheng-
[2b-	|
=27	=27
2b-]	|
*-	*-
